X: 437
T: Paddy Brown
N:"Gaily" "collected by J.O'Neill"
N:Irish title: padraic bruna.c
B:O'Neill's 437
Z:Transcribed by henrik.norbeck@mailbox.swipnet.se
M:6/8
L:1/8
K:Gm
D | G2 A B2 c | d2 =e f>ef | g2 G G2 B | (A<c)A F2 D |
G2 A B2 c | d2 =e fdc | d=e^f g2 a | g3- g2 ||
(^f/g/) | a2 =f d2 =e | g2 f d2 e | f2 d c2 B | (A<c)A F2 D |
G2 A B2 c | d=e^f g2 A | B2 A G2 ^F | G3- G2 ||


